works/GoSurf/app/img/head1.svg

<svg width="40" height="25" viewBox="0 0 40 25" fill="none" xmlns="http://www.w3.org/2000/svg">
<path d="M26.3578 4.75399C26.4459 4.6742 26.534 4.59608 26.6205 4.51795C26.795 4.36336 26.9646 4.20545 27.1308 4.04919C27.292 3.88296 27.4832 3.77325 27.6511 3.63196C27.824 3.49732 27.9902 3.3577 28.1597 3.23303C28.5105 3.00863 28.8362 2.76094 29.167 2.57145C29.4978 2.38695 29.8053 2.18415 30.1112 2.04618C30.2625 1.96805 30.4071 1.89325 30.545 1.82178C30.688 1.75861 30.8243 1.69711 30.9539 1.64059C31.4742 1.39957 31.9048 1.25329 32.2006 1.14523C32.4982 1.04882 32.6577 0.998956 32.6577 0.998956L32.6727 0.99397C32.7259 0.977347 32.7708 0.934127 32.7891 0.877613C32.819 0.782864 32.7658 0.681468 32.6727 0.651549C32.6727 0.651549 32.4932 0.595034 32.1641 0.535191C31.9995 0.508596 31.7917 0.468702 31.5507 0.45374C31.308 0.433793 31.0254 0.403872 30.7112 0.413847C30.5533 0.415509 30.3855 0.412184 30.2109 0.422158C30.0364 0.437118 29.8535 0.45374 29.664 0.472026C29.2784 0.498622 28.8744 0.58672 28.434 0.676481C28.2096 0.71305 27.9918 0.782864 27.7641 0.852677C27.5347 0.924154 27.2987 0.99729 27.0576 1.07209C26.5955 1.26657 26.0902 1.45939 25.5982 1.722C25.3555 1.85831 25.1062 1.9996 24.8552 2.15086C24.7288 2.22566 24.6025 2.30212 24.4745 2.37858C24.3548 2.46668 24.2335 2.55478 24.1121 2.64288C23.8711 2.82738 23.6251 3.01355 23.3741 3.20305C23.1148 3.38589 22.9087 3.62359 22.671 3.84135C22.4399 4.06741 22.2056 4.29513 21.9696 4.5262C21.7584 4.77719 21.5473 5.03317 21.3396 5.29747C21.1351 5.56343 20.9124 5.82607 20.7229 6.10862C20.5417 6.39619 20.3705 6.69373 20.1926 6.99126C20.0247 7.29545 19.8369 7.58632 19.6873 7.90879C19.541 8.23792 19.4047 8.57369 19.2668 8.91113C19.1288 9.2469 18.9908 9.58598 18.8628 9.92675C18.7747 10.2426 18.685 10.5617 18.5952 10.8809C18.5054 11.2 18.4157 11.5208 18.3259 11.8416L18.1747 12.3702L18.0566 12.8074C18.0151 12.9537 17.9818 13.1016 17.9353 13.2462L17.7774 13.6701L17.6195 14.0973C17.5646 14.2385 17.4948 14.3715 17.4333 14.5112C16.928 15.6132 16.2598 16.6405 15.4586 17.548C14.6557 18.454 13.7432 19.2568 12.7658 19.9284C11.79 20.6049 10.7578 21.1485 9.74382 21.6056C8.72654 22.0594 7.72254 22.4118 6.77671 22.6877C4.88344 23.2446 3.2345 23.5006 2.08097 23.6501C0.922372 23.7947 0.257478 23.8047 0.257478 23.8047C0.172704 23.8064 0.0995674 23.8695 0.0879292 23.956C0.0762938 24.0507 0.142784 24.1388 0.239193 24.1505H0.242517C0.242517 24.1505 0.92239 24.2369 2.11252 24.2618C2.70758 24.2751 3.43235 24.2685 4.26511 24.217C5.09622 24.1654 6.03707 24.0823 7.05601 23.9111C9.08724 23.5687 11.4777 22.9487 13.8313 21.6688C15.0049 21.0321 16.1684 20.2326 17.2057 19.2352C18.2462 18.2462 19.1688 17.076 19.9001 15.7911C19.9916 15.6298 20.0913 15.4736 20.1761 15.309L20.4204 14.8137C20.585 14.4829 20.7446 14.1488 20.8775 13.808L21.087 13.2977L21.1385 13.1697L21.1651 13.1065L21.1717 13.0899C21.1933 13.0251 21.1485 13.1597 21.1551 13.1414L21.1667 13.1132L21.2648 12.8821C21.3978 12.5763 21.5291 12.2704 21.6604 11.9663C21.7918 11.6621 21.9231 11.3595 22.0544 11.057C22.2023 10.8044 22.3386 10.5517 22.4733 10.3007C22.6079 10.0497 22.7442 9.80205 22.8656 9.54941C23.0035 9.30174 23.1681 9.06239 23.3127 8.81971C23.4573 8.57536 23.6019 8.33435 23.7366 8.09001C23.8862 7.8573 24.0507 7.6412 24.2003 7.41682C24.3566 7.19574 24.4962 6.96635 24.6475 6.74861C24.812 6.54415 24.9733 6.34136 25.1328 6.14188C25.2126 6.04049 25.2907 5.94075 25.3705 5.84102C25.447 5.73796 25.5251 5.63823 25.6132 5.55345C25.7844 5.37227 25.9523 5.19441 26.1185 5.01822C26.1967 4.93178 26.2781 4.84202 26.3579 4.75392L26.3578 4.75399Z" fill="#4AF6CD"/>
<path fill-rule="evenodd" clip-rule="evenodd" d="M38.8297 23.451C39.4663 23.7352 39.837 23.8732 39.837 23.8732L39.8371 23.8732C39.9003 23.8964 39.9335 23.9663 39.9086 24.0261C39.887 24.081 39.8288 24.1125 39.7706 24.1026C39.7706 24.1026 39.3733 24.0261 38.6901 23.8516C38.0053 23.6803 37.0395 23.3861 35.8992 22.9589C35.809 22.9233 35.7172 22.8878 35.6241 22.8517C35.4259 22.7749 35.222 22.6958 35.0149 22.6099C34.8727 22.5473 34.7283 22.4845 34.5819 22.4207C34.4168 22.3488 34.2491 22.2758 34.0791 22.2009C33.9574 22.1407 33.8341 22.08 33.7097 22.0187C33.5113 21.9209 33.3099 21.8217 33.1067 21.7206C32.8637 21.5847 32.617 21.4461 32.3665 21.3054C32.2829 21.2584 32.1988 21.2111 32.1143 21.1637C32.0087 21.0965 31.9026 21.0289 31.7962 20.961C31.571 20.8175 31.3439 20.6727 31.1137 20.5271C30.8778 20.3603 30.6454 20.1842 30.4103 20.006C30.3173 19.9355 30.2239 19.8647 30.1296 19.794C29.9626 19.6482 29.7951 19.5009 29.6271 19.3533C29.4791 19.2233 29.3308 19.0929 29.1821 18.9629C29.0935 18.8692 29.0041 18.7757 28.9145 18.682C28.7082 18.4662 28.5006 18.249 28.2978 18.0254L27.8939 17.5085L27.6928 17.2492L27.5897 17.1195L27.5648 17.0879L27.5515 17.0713C27.5492 17.0672 27.5484 17.0659 27.5485 17.066C27.5486 17.0662 27.5663 17.0974 27.5182 17.0165L27.5133 17.0081L27.4717 16.945L27.1459 16.4446C27.1126 16.3908 27.0789 16.3411 27.0453 16.2913C26.9698 16.1798 26.8942 16.068 26.8218 15.9094C26.7727 15.8075 26.7208 15.7055 26.6687 15.6031C26.5076 15.2861 26.345 14.9661 26.2583 14.6394C26.244 14.5957 26.2296 14.552 26.2151 14.5083C26.1588 14.338 26.1025 14.1678 26.0588 13.9945C26.0434 13.8993 26.0283 13.8044 26.0132 13.7097C25.9925 13.5797 25.9719 13.4502 25.9508 13.3213C25.9462 13.2773 25.9405 13.2339 25.9347 13.1905C25.9256 13.1224 25.9166 13.0546 25.9125 12.9855L25.9159 12.6431C25.9187 12.5783 25.9202 12.5138 25.9217 12.4495C25.9254 12.2878 25.9291 12.1276 25.9541 11.9683C25.9823 11.7954 26.0183 11.6255 26.0539 11.4578C26.0645 11.4078 26.0751 11.358 26.0854 11.3084C26.1109 11.1642 26.1675 11.0245 26.223 10.8873C26.2508 10.8188 26.2782 10.7509 26.3015 10.6833L26.4212 10.3841C26.4499 10.3201 26.4873 10.2583 26.5244 10.1973C26.5431 10.1664 26.5618 10.1356 26.5791 10.1049C26.6132 10.0501 26.646 9.99525 26.6785 9.94081C26.7537 9.81503 26.8274 9.69163 26.9132 9.57795C26.924 9.56533 26.9347 9.55273 26.9454 9.54015C27.2011 9.23977 27.4443 8.95406 27.7426 8.74186C27.9589 8.54627 28.2106 8.41327 28.448 8.28778C28.5153 8.25223 28.5814 8.21729 28.6452 8.18169C28.7579 8.13147 28.8733 8.09299 28.9854 8.05559C29.0255 8.04224 29.0651 8.02903 29.104 8.01547C29.1189 8.01044 29.1338 8.0054 29.1485 8.00038C29.2802 7.95558 29.4066 7.91257 29.5412 7.89911C30.1129 7.78442 30.6183 7.816 31.0056 7.89413C31.2017 7.93568 31.3696 7.98223 31.5126 8.02378C31.6539 8.08528 31.7702 8.13848 31.8616 8.18502C32.0445 8.27645 32.1359 8.32797 32.1359 8.32797C32.1957 8.36288 32.2157 8.43934 32.1808 8.49918C32.1608 8.53409 32.1276 8.5557 32.091 8.56068L32.0744 8.56401C32.0744 8.56401 31.973 8.57897 31.7835 8.60723C31.7084 8.62088 31.6198 8.63117 31.5205 8.64271C31.499 8.64521 31.4769 8.64777 31.4544 8.65044C31.4119 8.66217 31.3674 8.67521 31.3213 8.68874C31.23 8.71549 31.1321 8.74418 31.0305 8.76846C30.9245 8.78556 30.8154 8.83626 30.7031 8.88842C30.6517 8.91232 30.5996 8.93653 30.5468 8.95795C30.4313 8.99349 30.321 9.06315 30.2085 9.13422C30.1526 9.16954 30.0961 9.2052 30.0382 9.23721C29.9216 9.30668 29.8127 9.39956 29.7031 9.49295C29.6501 9.5381 29.597 9.58337 29.5428 9.62617C29.4938 9.68484 29.4415 9.73961 29.3892 9.79442C29.2888 9.89954 29.1882 10.0048 29.1106 10.1381C28.8347 10.4989 28.6452 10.951 28.5388 11.4413C28.5315 11.4877 28.5201 11.5326 28.5087 11.5774C28.4892 11.6546 28.4696 11.7318 28.4707 11.817C28.4684 11.8467 28.4663 11.8766 28.4642 11.9064C28.4571 12.0085 28.4499 12.111 28.4358 12.2126C28.4293 12.2859 28.4335 12.3628 28.4378 12.4401C28.4412 12.503 28.4446 12.5662 28.4424 12.6282C28.4424 12.6456 28.4425 12.663 28.4426 12.6805C28.4429 12.7329 28.4432 12.7856 28.4407 12.8393C28.443 12.8889 28.451 12.9394 28.459 12.9902C28.4625 13.0124 28.466 13.0347 28.469 13.057C28.4768 13.1343 28.4842 13.212 28.4916 13.29C28.4983 13.3612 28.5051 13.4327 28.5122 13.5042C28.5488 13.6554 28.582 13.81 28.6119 13.9662C28.6419 14.1756 28.6999 14.365 28.7588 14.5571C28.7915 14.6639 28.8245 14.7715 28.853 14.8838C28.8696 14.9859 28.9303 15.1168 28.9909 15.2475C29.0151 15.2998 29.0394 15.352 29.0608 15.4024L29.3068 15.9459L29.3367 16.0141L29.34 16.0191L29.3433 16.0257L29.4115 16.1421L29.5511 16.3715L29.832 16.8369C29.9586 17.0019 30.0846 17.167 30.2104 17.3317C30.3077 17.459 30.4048 17.5861 30.5019 17.7129L31.2599 18.5308C31.5325 18.7851 31.8034 19.0377 32.0727 19.2871C32.1668 19.3651 32.2604 19.4431 32.3537 19.5207C32.5425 19.6776 32.7297 19.8333 32.9155 19.9868C33.2064 20.2029 33.4939 20.4157 33.7748 20.6235C34.0657 20.8213 34.3516 21.0141 34.6292 21.2003C34.9151 21.3782 35.1927 21.551 35.462 21.7189C35.6348 21.8222 35.8063 21.9194 35.9739 22.0145C36.0707 22.0694 36.1662 22.1235 36.2599 22.1777C36.7768 22.4636 37.2605 22.7129 37.6944 22.9224C38.1299 23.1335 38.5122 23.3097 38.8297 23.451ZM29.32 15.9845C29.3196 15.984 29.3191 15.9834 29.3183 15.9825L29.3266 15.9975L29.3299 16.0008C29.3266 15.9958 29.3216 15.9875 29.3199 15.9842C29.3199 15.9843 29.32 15.9844 29.32 15.9845Z" fill="#4AF6CD"/>
<path d="M31.4876 2.85237C30.7064 3.0136 30.2127 3.21806 30.2127 3.21806C30.1811 3.23136 30.1562 3.26294 30.1562 3.29951C30.1545 3.34771 30.1944 3.38761 30.2426 3.38761C30.2443 3.38761 30.7595 3.39093 31.5192 3.47903C31.8982 3.5156 32.3337 3.59206 32.7925 3.67185C33.2496 3.77491 33.7333 3.86799 34.1971 4.01427C34.3134 4.05416 34.4298 4.08574 34.5428 4.12896C34.6542 4.17883 34.7639 4.22703 34.8736 4.27524C35.093 4.36999 35.2991 4.47471 35.5069 4.54618C35.718 4.60935 35.9225 4.6642 36.1236 4.70077C36.3297 4.73401 36.5259 4.7656 36.7071 4.79385C36.8916 4.82211 37.0711 4.83209 37.234 4.8404C37.3919 4.85702 37.5382 4.867 37.6628 4.867C37.9138 4.87198 38.0801 4.8537 38.0801 4.8537L38.0867 4.85204C38.095 4.85037 38.1017 4.84871 38.11 4.84705C38.1665 4.8271 38.1948 4.76394 38.1748 4.70742C38.1748 4.70742 38.12 4.55616 37.9853 4.33342C37.9188 4.21872 37.8291 4.09073 37.7177 3.94778C37.6047 3.80981 37.4634 3.67351 37.3021 3.53222C37.2223 3.45908 37.1343 3.38927 37.0428 3.31946C36.9464 3.25962 36.85 3.19147 36.7436 3.13329C36.5375 3.0053 36.3065 2.8906 36.0538 2.82245C35.8028 2.74598 35.5335 2.70609 35.2576 2.69446C34.9833 2.66952 34.7074 2.65789 34.4331 2.64459C34.1605 2.61966 33.8879 2.62298 33.622 2.61799C33.356 2.61134 33.0934 2.63794 32.8424 2.65124C32.5897 2.68116 32.3504 2.69445 32.1226 2.73601C31.8966 2.77424 31.6838 2.81081 31.4877 2.85237L31.4876 2.85237Z" fill="#4AF6CD"/>
<path d="M37.1093 9.00251C37.2756 9.07731 37.4052 9.16042 37.5349 9.22027C37.7726 9.35324 37.9388 9.43303 37.9388 9.43303L37.9488 9.43802C37.9621 9.44467 37.977 9.44799 37.9937 9.44799C38.0468 9.44633 38.0901 9.40145 38.0901 9.3466C38.0901 9.3466 38.0884 9.30171 38.0867 9.2186C38.0817 9.13549 38.0768 9.01083 38.0435 8.85956C38.0069 8.71162 37.9621 8.52379 37.8706 8.33097C37.7892 8.12817 37.6662 7.9204 37.5133 7.70594C37.4351 7.60123 37.347 7.49484 37.2556 7.38846C37.1575 7.29039 37.0595 7.18068 36.9481 7.08427C36.7287 6.88647 36.476 6.70362 36.1951 6.559C35.9142 6.41604 35.605 6.31132 35.2909 6.2332C34.9767 6.14843 34.6592 6.08194 34.3467 6.0088C33.7217 5.86419 33.0967 5.76279 32.5099 5.71625C31.9248 5.66139 31.3779 5.65142 30.9109 5.65641C29.9784 5.66804 29.365 5.76113 29.365 5.76113C29.3284 5.76611 29.2985 5.79437 29.2902 5.83094C29.2819 5.87914 29.3118 5.92569 29.36 5.934C29.36 5.934 29.9601 6.04869 30.8361 6.27974C31.2732 6.39278 31.7769 6.54071 32.3055 6.71523C32.5698 6.80001 32.8374 6.90307 33.11 6.99948C33.3793 7.09921 33.6502 7.20892 33.9129 7.32694C34.1755 7.44662 34.4298 7.58292 34.6642 7.73252C34.9019 7.88046 35.1229 8.03172 35.3457 8.15473C35.5685 8.27607 35.7829 8.38246 35.9973 8.47554C36.2084 8.57361 36.4079 8.6667 36.5924 8.75313C36.7818 8.84289 36.9564 8.92767 37.1093 9.00247L37.1093 9.00251Z" fill="#4AF6CD"/>
<path d="M36.1817 11.0889C36.1185 10.9576 36.0287 10.8346 35.929 10.7033C35.8309 10.5703 35.7046 10.4639 35.565 10.3625C35.4254 10.2628 35.2558 10.2029 35.0879 10.1381C34.9184 10.0816 34.7472 10.0267 34.5826 9.96524C34.2501 9.85387 33.9194 9.74749 33.6019 9.69097C33.2877 9.62116 32.9885 9.58958 32.7358 9.56298C32.2305 9.51145 31.8881 9.53306 31.8881 9.53306C31.8631 9.53472 31.8399 9.54968 31.8266 9.57462C31.81 9.61119 31.8249 9.6544 31.8615 9.67102C31.8615 9.67102 32.1624 9.81231 32.5946 10.0384C32.809 10.1564 33.0533 10.2977 33.3093 10.4523C33.434 10.5321 33.5636 10.6135 33.6933 10.695C33.8246 10.7747 33.9493 10.8678 34.0756 10.9543C34.197 11.0474 34.3133 11.1488 34.4197 11.2535C34.5194 11.3648 34.6275 11.4612 34.7305 11.5444C34.8319 11.6275 34.9549 11.6823 35.0646 11.7388C35.1727 11.797 35.2907 11.8386 35.3987 11.8818C35.5018 11.9267 35.6082 11.9632 35.7112 11.9932C35.8143 12.0231 35.8958 12.058 35.9772 12.0796C36.1368 12.1278 36.2531 12.1478 36.2531 12.1478L36.2581 12.1494C36.3097 12.1594 36.3595 12.1245 36.3695 12.073C36.3695 12.073 36.3894 11.9632 36.3778 11.7821C36.3712 11.6923 36.3612 11.5776 36.3279 11.4629C36.293 11.3482 36.2465 11.2219 36.1817 11.0889H36.1817Z" fill="#4AF6CD"/>
</svg>

<svg width="40" height="25" fill="none" xmlns="http://www.w3.org/2000/svg"><path d="M26.358 4.754l.262-.236c.175-.155.345-.313.51-.469.162-.166.353-.276.521-.417.173-.135.34-.274.509-.399.35-.224.676-.472 1.007-.662.33-.184.638-.387.944-.525l.434-.224.409-.181c.52-.241.95-.388 1.247-.496.297-.096.457-.146.457-.146l.015-.005a.18.18 0 00.116-.116.181.181 0 00-.116-.226s-.18-.057-.509-.117C32 .51 31.792.47 31.551.454c-.243-.02-.526-.05-.84-.04-.158.002-.325-.002-.5.008l-.547.05c-.386.027-.79.115-1.23.204-.224.037-.442.107-.67.177l-.706.22c-.462.194-.968.386-1.46.649-.242.136-.492.278-.743.429l-.38.228-.363.264c-.24.184-.487.37-.738.56-.26.183-.465.42-.703.638l-.701.685c-.212.251-.423.507-.63.771-.205.266-.428.53-.617.812-.181.287-.352.585-.53.882-.168.304-.356.595-.506.918-.146.329-.282.665-.42 1.002a35.75 35.75 0 00-.404 1.016l-.268.954-.27.96-.15.53-.118.436c-.042.147-.075.295-.122.44l-.158.423-.158.427c-.054.142-.124.274-.186.414a12.419 12.419 0 01-1.974 3.037 14.841 14.841 0 01-2.693 2.38c-.976.677-2.008 1.22-3.022 1.678a23.313 23.313 0 01-2.967 1.082 30.126 30.126 0 01-4.696.962 18.65 18.65 0 01-1.824.155.175.175 0 00-.17.151.174.174 0 00.152.195h.004s.68.086 1.87.11c.595.014 1.32.008 2.152-.044a26.64 26.64 0 002.791-.306c2.031-.342 4.422-.962 6.775-2.242 1.174-.637 2.337-1.436 3.375-2.434a15.046 15.046 0 002.694-3.444c.092-.161.191-.317.276-.482l.244-.495c.165-.331.325-.665.457-1.006l.21-.51.052-.128.026-.063.007-.017-.017.051.012-.028.098-.23.395-.917.394-.909c.148-.253.285-.505.42-.756.134-.251.27-.499.392-.752.137-.247.302-.487.447-.73.144-.244.289-.485.424-.729.15-.233.314-.449.463-.673.157-.221.296-.45.448-.668l.485-.607.238-.301c.076-.103.154-.203.242-.288l.506-.535.239-.264z" fill="#4AF6CD"/><path fill-rule="evenodd" clip-rule="evenodd" d="M38.83 23.451c.636.284 1.007.422 1.007.422.063.023.096.093.072.153a.125.125 0 01-.138.077s-.398-.077-1.08-.251a26.819 26.819 0 01-2.792-.893l-.275-.107a27.668 27.668 0 01-.61-.242l-.432-.19c-.165-.071-.333-.144-.503-.22l-.37-.181-.602-.298-.74-.416-.253-.141-.318-.203-.682-.434a26.509 26.509 0 01-.704-.521 66.11 66.11 0 00-.28-.212l-.503-.44-.445-.391a69.294 69.294 0 00-.267-.281 34.278 34.278 0 01-.617-.657l-.404-.516-.201-.26-.103-.13-.025-.031-.014-.017-.002-.005s.017.031-.03-.05l-.006-.008-.041-.063-.326-.5c-.033-.054-.067-.104-.1-.154a2.46 2.46 0 01-.224-.382l-.153-.306c-.161-.317-.324-.637-.41-.964a33.435 33.435 0 00-.044-.13c-.056-.171-.113-.341-.156-.514l-.046-.285-.062-.389a4.58 4.58 0 00-.016-.13 2.792 2.792 0 01-.022-.206l.003-.342.006-.194c.003-.161.007-.321.032-.48.028-.174.064-.343.1-.511l.031-.15c.026-.144.082-.284.138-.42.028-.07.055-.137.079-.205l.12-.299c.028-.064.065-.126.102-.187a10.38 10.38 0 00.154-.256c.076-.126.15-.25.235-.363l.032-.038c.256-.3.5-.586.798-.798.216-.196.468-.329.705-.454.067-.036.133-.07.197-.106.113-.05.228-.089.34-.126A8.955 8.955 0 0029.148 8c.132-.044.259-.087.393-.1a3.723 3.723 0 011.465-.006c.196.042.364.088.507.13a6.638 6.638 0 01.623.304c.06.035.08.111.045.171a.122.122 0 01-.09.062l-.017.003-.29.043c-.076.014-.164.024-.264.036l-.066.007a8.704 8.704 0 00-.133.039c-.091.026-.189.055-.29.08-.107.017-.216.067-.328.12a3.441 3.441 0 01-.156.069 1.48 1.48 0 00-.338.176 3.415 3.415 0 01-.17.103c-.117.07-.226.163-.336.256-.053.045-.106.09-.16.133-.05.059-.101.114-.154.168-.1.106-.2.21-.278.344-.276.36-.466.813-.572 1.303a1.49 1.49 0 01-.03.136c-.02.078-.04.155-.038.24l-.007.09a4.494 4.494 0 01-.028.306c-.007.073-.003.15.002.227.003.063.007.126.004.188v.053c0 .052.001.105-.001.158.002.05.01.1.018.151a2.986 2.986 0 01.033.3l.02.214c.037.151.07.306.1.462.03.21.088.399.147.591.032.107.066.214.094.327.017.102.077.233.138.364l.07.154.246.544.03.068.003.005.003.007.069.116.14.23.28.465.378.495.292.38.758.819c.272.254.543.507.813.756l.28.234.563.466.859.637c.29.197.577.39.854.576l.833.519c.173.103.344.2.512.296a29.384 29.384 0 001.72.908c.436.21.818.387 1.136.528zm-9.51-7.466c0-.001 0-.002-.002-.002l.009.014.003.004a.252.252 0 01-.01-.017z" fill="#4AF6CD"/><path d="M31.488 2.852a7.76 7.76 0 00-1.275.366.09.09 0 00-.057.082.086.086 0 00.087.088c.001 0 .517.003 1.276.091.38.037.815.113 1.273.193.458.103.941.196 1.405.342.116.04.233.072.346.115l.33.146c.22.095.426.2.634.271.211.063.416.118.617.155l.583.093c.185.028.364.038.527.046.158.017.304.027.429.027.25.005.417-.013.417-.013l.007-.002.023-.005a.11.11 0 00.065-.14s-.055-.15-.19-.374a3.516 3.516 0 00-.267-.385 3.618 3.618 0 00-.416-.416 3.753 3.753 0 00-.26-.213c-.096-.06-.192-.128-.298-.186a2.602 2.602 0 00-.69-.31 3.201 3.201 0 00-.796-.129c-.275-.024-.55-.036-.825-.05-.273-.024-.545-.021-.811-.026-.266-.007-.529.02-.78.033-.252.03-.492.043-.72.085a16.01 16.01 0 00-.634.116zM37.11 9.003c.166.074.295.157.425.217.238.133.404.213.404.213l.01.005c.013.007.028.01.045.01a.1.1 0 00.096-.101l-.003-.128c-.005-.084-.01-.208-.044-.36-.036-.147-.08-.335-.172-.528a3.073 3.073 0 00-.358-.625 6.06 6.06 0 00-.257-.318c-.099-.098-.197-.207-.308-.304a3.58 3.58 0 00-.753-.525 4.275 4.275 0 00-.904-.326c-.314-.085-.632-.151-.944-.224a12.705 12.705 0 00-1.837-.293 15.37 15.37 0 00-1.6-.06c-.932.012-1.545.105-1.545.105a.09.09 0 00-.075.07.088.088 0 00.07.103s.6.115 1.476.346c.437.113.94.26 1.47.435.264.085.531.188.804.284.27.1.54.21.803.328.263.12.517.256.751.406.238.147.459.299.682.422.223.121.437.227.651.32l.595.278c.19.09.364.175.517.25zM36.182 11.089a2.324 2.324 0 00-.253-.386 1.62 1.62 0 00-.364-.34c-.14-.1-.31-.16-.477-.225-.17-.056-.34-.111-.505-.173a7.092 7.092 0 00-.981-.274 7.55 7.55 0 00-.866-.128c-.505-.052-.848-.03-.848-.03a.076.076 0 00-.061.042.072.072 0 00.034.096s.301.141.734.367c.214.118.458.26.714.414l.384.243c.132.08.256.173.383.26.121.092.237.194.344.299.1.11.207.207.31.29.102.083.225.138.335.195.108.058.226.1.334.143.103.045.21.081.312.111.103.03.185.065.266.087.16.048.276.068.276.068l.005.001a.096.096 0 00.111-.076s.02-.11.009-.29a1.541 1.541 0 00-.05-.32 2.534 2.534 0 00-.146-.374z" fill="#4AF6CD"/></svg>
